dist/intermediate-svg/eventIcon--test-drive.svg

<?xml version="1.0" encoding="utf-8"?><svg xmlns="http://www.w3.org/2000/svg" viewBox="0 0 16 16" width="16" height="16"><path d="M0 8a8 8 0 108-8 8 8 0 00-8 8zm14 0a6 6 0 11-6-6 6 6 0 016 6zm-6 .67c-.4 0-1.33-.27-1.33-.67S7.6 7.33 8 7.33s1.33.27 1.33.67-.93.67-1.33.67z" fill="#333"/><path d="M9.94 9.09a3.57 3.57 0 00-.51 4.09c.1.17 2.27-.73 3.5-2.66.37-.58.7-1.5.48-1.74a3.06 3.06 0 00-3.47.31zM6.06 9.09a3.57 3.57 0 01.51 4.09c-.1.17-2.27-.73-3.5-2.66-.37-.58-.7-1.5-.48-1.74a3.06 3.06 0 013.47.31zM7.87 6.29a12.06 12.06 0 00-5.12 1c.16-1.55 1.87-4.66 5.12-4.66a5.5 5.5 0 015.38 4.66 12.77 12.77 0 00-5.38-1z" fill="#333"/></svg>

<?xml version="1.0" encoding="utf-8"?><svg xmlns="http://www.w3.org/2000/svg" viewBox="0 0 16 16" width="16" height="16"><path d="M0,8A8,8,0,1,0,8,0,8,8,0,0,0,0,8ZM14,8A6,6,0,1,1,8,2,6,6,0,0,1,14,8ZM8,8.67c-.4,0-1.33-.27-1.33-.67S7.6,7.33,8,7.33,9.33,7.6,9.33,8,8.4,8.67,8,8.67Z" fill="#333"/><path d="M9.94 9.09a3.57 3.57 0 00-.51 4.09c.1.17 2.27-.73 3.5-2.66.37-.58.7-1.5.48-1.74A3.06 3.06 0 009.94 9.09zM6.06 9.09a3.57 3.57 0 01.51 4.09c-.1.17-2.27-.73-3.5-2.66-.37-.58-.7-1.5-.48-1.74A3.06 3.06 0 016.06 9.09zM7.87 6.29a12.06 12.06 0 00-5.12 1c.16-1.55 1.87-4.66 5.12-4.66a5.5 5.5 0 015.38 4.66A12.77 12.77 0 007.87 6.29z" fill="#333"/></svg>
